icons/Xenlism-Storm/Apps/desktop-enviroment-mate.svg

<?xml version="1.0" encoding="UTF-8" standalone="no"?>
<svg
   xmlns:dc="http://purl.org/dc/elements/1.1/"
   xmlns:cc="http://creativecommons.org/ns#"
   xmlns:rdf="http://www.w3.org/1999/02/22-rdf-syntax-ns#"
   xmlns:svg="http://www.w3.org/2000/svg"
   xmlns="http://www.w3.org/2000/svg"
   xmlns:sodipodi="http://sodipodi.sourceforge.net/DTD/sodipodi-0.dtd"
   xmlns:inkscape="http://www.inkscape.org/namespaces/inkscape"
   viewBox="0 0 640 640"
   height="640"
   width="640"
   xml:space="preserve"
   version="1.1"
   id="svg2"
   sodipodi:docname="desktop-enviroment-mate.svg"
   inkscape:version="0.92.3 (2405546, 2018-03-11)"><sodipodi:namedview
     pagecolor="#ffffff"
     bordercolor="#666666"
     borderopacity="1"
     objecttolerance="10"
     gridtolerance="10"
     guidetolerance="10"
     inkscape:pageopacity="0"
     inkscape:pageshadow="2"
     inkscape:window-width="1920"
     inkscape:window-height="1003"
     id="namedview105"
     showgrid="false"
     inkscape:zoom="0.36875"
     inkscape:cx="-130.16949"
     inkscape:cy="309.15254"
     inkscape:window-x="0"
     inkscape:window-y="0"
     inkscape:window-maximized="1"
     inkscape:current-layer="svg2" /><metadata
     id="metadata8"><rdf:RDF><cc:Work
         rdf:about=""><dc:format>image/svg+xml</dc:format><dc:type
           rdf:resource="http://purl.org/dc/dcmitype/StillImage" /></cc:Work></rdf:RDF></metadata><defs
     id="defs6"><clipPath
       id="clipPath16"
       clipPathUnits="userSpaceOnUse"><path
         id="path18"
         d="M 0,512 512,512 512,0 0,0 0,512 Z" /></clipPath><clipPath
       id="clipPath24"
       clipPathUnits="userSpaceOnUse"><path
         id="path26"
         d="m 18.325,493.744 475.4,0 0,-475.4877 -475.4,0 0,475.4877 z" /></clipPath><clipPath
       id="clipPath28"
       clipPathUnits="userSpaceOnUse"><path
         id="path30"
         d="M 448.99,63.029 C 389.293,3.332 122.807,3.332 63.11,63.029 3.413,122.726 3.413,389.312 63.01,449.009 c 59.597,59.696 326.283,59.596 385.98,0 59.697,-59.597 59.597,-326.283 0,-385.98" /></clipPath><radialGradient
       id="radialGradient36"
       spreadMethod="pad"
       gradientTransform="matrix(237.72188,0,0,237.72188,256.02499,256)"
       gradientUnits="userSpaceOnUse"
       r="1"
       cy="0"
       cx="0"
       fy="0"
       fx="0"><stop
         id="stop38"
         offset="0"
         style="stop-opacity:1;stop-color:#ffffff" /><stop
         id="stop40"
         offset="0.8587"
         style="stop-opacity:0.14129854;stop-color:#ffffff" /><stop
         id="stop42"
         offset="1"
         style="stop-opacity:0;stop-color:#ffffff" /></radialGradient><mask
       id="mask44"
       height="1"
       width="1"
       y="0"
       x="0"
       maskUnits="userSpaceOnUse"><g
         id="g46"><g
           id="g48"><g
             id="g50"><g
               id="g52"><path
                 id="path54"
                 style="fill:url(#radialGradient36);stroke:none"
                 d="m -32768,32767 65535,0 0,-65535 -65535,0 0,65535 z" /></g></g></g></g></mask><radialGradient
       id="radialGradient56"
       spreadMethod="pad"
       gradientTransform="matrix(237.72188,0,0,237.72188,256.02499,256)"
       gradientUnits="userSpaceOnUse"
       r="1"
       cy="0"
       cx="0"
       fy="0"
       fx="0"><stop
         id="stop58"
         offset="0"
         style="stop-opacity:1;stop-color:#010101" /><stop
         id="stop60"
         offset="0.8587"
         style="stop-opacity:1;stop-color:#010101" /><stop
         id="stop62"
         offset="1"
         style="stop-opacity:1;stop-color:#010101" /></radialGradient><clipPath
       id="clipPath86"
       clipPathUnits="userSpaceOnUse"><path
         id="path88"
         d="m 18.325,493.744 475.4,0 0,-475.4877 -475.4,0 0,475.4877 z" /></clipPath><clipPath
       id="clipPath90"
       clipPathUnits="userSpaceOnUse"><path
         id="path92"
         d="M 448.99,63.029 C 389.293,3.332 122.807,3.332 63.11,63.029 3.413,122.726 3.413,389.312 63.01,449.009 c 59.597,59.696 326.283,59.596 385.98,0 59.697,-59.597 59.597,-326.283 0,-385.98" /></clipPath><radialGradient
       id="radialGradient98"
       spreadMethod="pad"
       gradientTransform="matrix(188.25467,188.36119,-130.35883,130.27895,256.02499,256.04376)"
       gradientUnits="userSpaceOnUse"
       r="1"
       cy="0"
       cx="0"
       fy="0"
       fx="0"><stop
         id="stop100"
         offset="0"
         style="stop-opacity:1;stop-color:#ffffff" /><stop
         id="stop102"
         offset="0.8587"
         style="stop-opacity:0.14129854;stop-color:#ffffff" /><stop
         id="stop104"
         offset="1"
         style="stop-opacity:0;stop-color:#ffffff" /></radialGradient><mask
       id="mask106"
       height="1"
       width="1"
       y="0"
       x="0"
       maskUnits="userSpaceOnUse"><g
         id="g108"><g
           id="g110"><g
             id="g112"><g
               id="g114"><path
                 id="path116"
                 style="fill:url(#radialGradient98);stroke:none"
                 d="m -32768,32767 65535,0 0,-65535 -65535,0 0,65535 z" /></g></g></g></g></mask><radialGradient
       id="radialGradient118"
       spreadMethod="pad"
       gradientTransform="matrix(188.25467,188.36119,-130.35883,130.27895,256.02499,256.04376)"
       gradientUnits="userSpaceOnUse"
       r="1"
       cy="0"
       cx="0"
       fy="0"
       fx="0"><stop
         id="stop120"
         offset="0"
         style="stop-opacity:1;stop-color:#010101" /><stop
         id="stop122"
         offset="0.8587"
         style="stop-opacity:1;stop-color:#010101" /><stop
         id="stop124"
         offset="1"
         style="stop-opacity:1;stop-color:#010101" /></radialGradient><clipPath
       id="clipPath148"
       clipPathUnits="userSpaceOnUse"><path
         id="path150"
         d="m 18.275,493.694 475.387,0 0,-475.4377 -475.387,0 0,475.4377 z" /></clipPath><clipPath
       id="clipPath152"
       clipPathUnits="userSpaceOnUse"><path
         id="path154"
         d="m 63.01,63.029 c 59.697,-59.697 326.183,-59.697 385.88,0 59.697,59.697 59.697,326.183 0,385.88 -59.697,59.696 -326.183,59.696 -385.88,0.1 -59.697,-59.597 -59.597,-326.283 0,-385.98" /></clipPath><radialGradient
       id="radialGradient160"
       spreadMethod="pad"
       gradientTransform="matrix(-188.28767,188.39421,130.38168,130.30179,255.92499,255.99377)"
       gradientUnits="userSpaceOnUse"
       r="1"
       cy="0"
       cx="0"
       fy="0"
       fx="0"><stop
         id="stop162"
         offset="0"
         style="stop-opacity:1;stop-color:#ffffff" /><stop
         id="stop164"
         offset="0.8587"
         style="stop-opacity:0.14129854;stop-color:#ffffff" /><stop
         id="stop166"
         offset="1"
         style="stop-opacity:0;stop-color:#ffffff" /></radialGradient><mask
       id="mask168"
       height="1"
       width="1"
       y="0"
       x="0"
       maskUnits="userSpaceOnUse"><g
         id="g170"><g
           id="g172"><g
             id="g174"><g
               id="g176"><path
                 id="path178"
                 style="fill:url(#radialGradient160);stroke:none"
                 d="m -32768,32767 65535,0 0,-65535 -65535,0 0,65535 z" /></g></g></g></g></mask><radialGradient
       id="radialGradient180"
       spreadMethod="pad"
       gradientTransform="matrix(-188.28767,188.39421,130.38168,130.30179,255.92499,255.99377)"
       gradientUnits="userSpaceOnUse"
       r="1"
       cy="0"
       cx="0"
       fy="0"
       fx="0"><stop
         id="stop182"
         offset="0"
         style="stop-opacity:1;stop-color:#010101" /><stop
         id="stop184"
         offset="0.8587"
         style="stop-opacity:1;stop-color:#010101" /><stop
         id="stop186"
         offset="1"
         style="stop-opacity:1;stop-color:#010101" /></radialGradient></defs><g
     transform="matrix(2.6247496,0,0,-2.6247496,-351.93524,991.9359)"
     id="g10"
     style="fill:#ffffff"><g
       id="g12"
       style="fill:#ffffff"><g
         clip-path="url(#clipPath16)"
         id="g14"
         style="fill:#ffffff"><g
           id="g20"
           style="fill:#ffffff"><g
             id="g22"
             style="fill:#ffffff" /><g
             id="g64"
             style="fill:#ffffff"><g
               style="opacity:0.39999402;fill:#ffffff"
               id="g66"
               clip-path="url(#clipPath24)"><g
                 id="g68"
                 style="fill:#ffffff"><g
                   id="g70"
                   clip-path="url(#clipPath28)"
                   style="fill:#ffffff"><g
                     id="g72"
                     style="fill:#ffffff"><g
                       id="g74"
                       style="fill:#ffffff" /><g
                       id="g76"
                       mask="url(#mask44)"
                       style="fill:#ffffff"><g
                         id="g78"
                         style="fill:#ffffff" /></g></g></g></g></g></g></g><g
           id="g82"
           style="fill:#ffffff"><g
             id="g84"
             style="fill:#ffffff" /><g
             id="g126"
             style="fill:#ffffff"><g
               style="opacity:0.39999402;fill:#ffffff"
               id="g128"
               clip-path="url(#clipPath86)"><g
                 id="g130"
                 style="fill:#ffffff"><g
                   id="g132"
                   clip-path="url(#clipPath90)"
                   style="fill:#ffffff"><g
                     id="g134"
                     style="fill:#ffffff"><g
                       id="g136"
                       style="fill:#ffffff" /><g
                       id="g138"
                       mask="url(#mask106)"
                       style="fill:#ffffff"><g
                         id="g140"
                         style="fill:#ffffff" /></g></g></g></g></g></g></g><g
           id="g144"
           style="fill:#ffffff"><g
             id="g146"
             style="fill:#ffffff" /><g
             id="g188"
             style="fill:#ffffff"><g
               style="opacity:0.39999402;fill:#ffffff"
               id="g190"
               clip-path="url(#clipPath148)"><g
                 id="g192"
                 style="fill:#ffffff"><g
                   id="g194"
                   clip-path="url(#clipPath152)"
                   style="fill:#ffffff"><g
                     id="g196"
                     style="fill:#ffffff"><g
                       id="g198"
                       style="fill:#ffffff" /><g
                       id="g200"
                       mask="url(#mask168)"
                       style="fill:#ffffff"><g
                         id="g202"
                         style="fill:#ffffff" /></g></g></g></g></g></g></g><g
           transform="translate(433.2792,78.7208)"
           id="g206"
           style="fill:#ffffff" /><g
           transform="translate(149.0876,321.767)"
           id="g210"
           style="fill:#ffffff"><path
             id="path212"
             style="fill:#ffffff;fill-opacity:1;fill-rule:nonzero;stroke:none"
             d="M 0,0 110.335,-65.118 -0.085,-130.286 C -0.085,-130.286 0,0 0,0"
             inkscape:connector-curvature="0" /></g><g
           transform="translate(362.9969,256)"
           id="g214"
           style="fill:#ffffff"><path
             id="path216"
             style="fill:#ffffff;fill-opacity:1;fill-rule:nonzero;stroke:none"
             d="m 0,0 c 0,57.702 -46.759,104.533 -104.374,104.533 -33.268,0 -62.788,-15.691 -81.905,-39.997 l 13.066,-8.286 c 16.31,19.962 41.23,32.667 68.999,32.667 49.082,0 88.916,-39.835 88.916,-88.917 0,-49.082 -39.834,-88.917 -88.916,-88.917 -27.689,0 -52.528,12.644 -68.839,32.507 l -13.067,-8.286 c 19.122,-24.205 48.559,-39.837 81.746,-39.837 C -46.759,-104.533 0,-57.702 0,0"
             inkscape:connector-curvature="0" /></g><g
           transform="translate(322.5222,255.8407)"
           id="g218"
           style="fill:#ffffff"><path
             id="path220"
             style="fill:#ffffff;fill-opacity:1;fill-rule:nonzero;stroke:none"
             d="m 0,0 c 0,35.272 -28.627,63.899 -63.899,63.899 -18.779,0 -35.632,-8.123 -47.327,-21.034 l 13.545,-8.446 c 8.712,8.605 20.622,13.864 33.782,13.864 26.652,0 48.283,-21.774 48.283,-48.602 0,-26.828 -21.631,-48.601 -48.283,-48.601 -13.405,0 -25.509,5.452 -34.26,14.341 l -13.067,-8.286 c 11.695,-12.911 28.548,-21.034 47.327,-21.034 C -28.627,-63.899 0,-35.272 0,0"
             inkscape:connector-curvature="0" /></g></g></g></g></svg>

<?xml version="1.0" encoding="UTF-8" standalone="no"?>
<!DOCTYPE svg PUBLIC "-//W3C//DTD SVG 1.1//EN" "http://www.w3.org/Graphics/SVG/1.1/DTD/svg11.dtd">
<svg width="100%" height="100%" viewBox="0 0 640 640" version="1.1" xmlns="http://www.w3.org/2000/svg" xmlns:xlink="http://www.w3.org/1999/xlink" xml:space="preserve" xmlns:serif="http://www.serif.com/" style="fill-rule:evenodd;clip-rule:evenodd;stroke-linejoin:round;stroke-miterlimit:1.41421;">
    <g transform="matrix(2.85403,0,0,-2.85403,-400.009,1108.08)">
        <g id="path212" transform="matrix(0.857251,0,0,0.857251,160.627,331.971)">
            <path d="M0,0L110.335,-65.118L-0.085,-130.286L0,0" style="fill:white;fill-rule:nonzero;"/>
        </g>
        <g id="path216" transform="matrix(0.857251,0,0,0.857251,344.001,276.127)">
            <path d="M0,0C0,57.702 -46.759,104.533 -104.374,104.533C-137.642,104.533 -167.162,88.842 -186.279,64.536L-173.213,56.25C-156.903,76.212 -131.983,88.917 -104.214,88.917C-55.132,88.917 -15.298,49.082 -15.298,0C-15.298,-49.082 -55.132,-88.917 -104.214,-88.917C-131.903,-88.917 -156.742,-76.273 -173.053,-56.41L-186.12,-64.696C-166.998,-88.901 -137.561,-104.533 -104.374,-104.533C-46.759,-104.533 0,-57.702 0,0" style="fill:white;fill-rule:nonzero;"/>
        </g>
        <g id="path220" transform="matrix(0.857251,0,0,0.857251,309.304,276.127)">
            <path d="M0,0C0,35.272 -28.627,63.899 -63.899,63.899C-82.678,63.899 -99.531,55.776 -111.226,42.865L-97.681,34.419C-88.969,43.024 -77.059,48.283 -63.899,48.283C-37.247,48.283 -15.616,26.509 -15.616,-0.319C-15.616,-27.147 -37.247,-48.92 -63.899,-48.92C-77.304,-48.92 -89.408,-43.468 -98.159,-34.579L-111.226,-42.865C-99.531,-55.776 -82.678,-63.899 -63.899,-63.899C-28.627,-63.899 0,-35.272 0,0" style="fill:white;fill-rule:nonzero;"/>
        </g>
    </g>
</svg>
